X:1
T:Title
%%score { 1 | 2 }
L:1/8
M:2/4
K:Ab
V:1 treble nm="Grand Piano"
V:2 bass 
V:1
 z2 z[Q:1/4=94] [CE] | [CE]2 [DF][DG] | [CA]2 [DB][Ec] | [Fd]2 [B,EG][DEB] | [CEA]3 [A,EA] | %5
 [A,FA]2 [A,EG][A,DF] | [A,CE]2 [CEA][Ec] | [EB]3 [EB] | [Ec]2 [Fd][Ec] | [=DB]2 [DF][DB] | B2 cB | %11
[M:3/8] A3 |[M:1/8] E |[M:2/4] F2 A[Fd] | c2 BG |[M:3/8] [CA]3 |[M:1/8] [Ec] | %17
[M:2/4] [Ee]2 [Ec][=EB] | [FA]2 FA | E2 [EA]B | c3 [Ec] | [Ee]2 [Ec][DB] | [CA]2 [Fd][Ec] | B3 B | %24
 B2 [=Ec][EB] | A2 FA | [=DA]2 [DB]>[Dc] | B3 c | e2 [Ec][EA] | B2 GE |[M:3/8] [CA]3 |] %31
V:2
 z2 z [A,,A,] | [A,,A,]2 [A,,G,][A,,F,] | [A,,E,]2 [D,F,][C,=A,] | [B,,B,]2 E,E, | A,,3 C, | %5
 D,2 D,D, | A,,2 A,,[A,,A,] | [E,G,]3 [E,G,] | [A,,A,]2 [A,,A,][A,,A,] | [B,,F,]2 [B,,B,][B,,A,] | %10
 [E,G,D]2 [E,G,E][E,G,D] |[M:3/8] [F,A,C]3 |[M:1/8] [C,A,] |[M:2/4] [D,A,D]2 [D,F,D][D,A,] | %14
 [E,A,E]2 [E,G,D][E,B,D] |[M:3/8] [A,,A,]3 |[M:1/8] [A,,A,] |[M:2/4] [A,,C]2 [A,,A,][C,G,] | %18
 [D,F,]2 [D,A,D][F,A,D] | [A,C]2 [C,A,][E,G,E] | [A,E]3 [A,,A,] | [A,,C]2 [A,,A,][E,G,] | %22
 [F,A,]2 [D,A,][A,,A,] | [E,G,E]3 [E,G,E] | [E,G,E]2 [C,G,][C,C] | [F,CF]2 [F,A,C][F,CF] | %26
 [B,,B,]2 [B,,A,]>[B,,A,] | [E,G,E]3 [A,E] | [A,CE]2 [A,,A,][C,A,] | [E,G,D]2 [E,B,D][E,G,D] | %30
[M:3/8] [A,,A,]3 |] %31

